X: 57
M: 4/4
L: 1/8
K: G
ef |\
g2f2 g2d2 | ed^/cd B2G2 | [AD]FDF [AD]cBA | GABc d2ef |
g2f2 g2d2 | edcd B2G2 | AFDF AcBA | G2[GG2]G [GG]z |]


